NCOLS 19 
NROWS 50 
XLLCORNER -0.1 
YLLCORNER 6.1 
CELLSIZE 0.1 
NODATA_value -9999 
-9999.000000000000000 127 128 -9999 -9999 -9999 -9999 -9999 -9999 -9999 -9999 -9999 -9999 -9999 -9999 -9999 -9999 -9999 -9999
-9999 127 127 127 127 127 126 127 127 127 -9999 -9999 -9999 -9999 -9999 -9999 -9999 -9999 -9999
-9999 127 127 127 127 127 127 127 127 127 -9999 -9999 -9999 -9999 -9999 -9999 -9999 -9999 -9999
129 127 127 127 127 127 127 127 125 -9999 -9999 -9999 -9999 -9999 -9999 -9999 -9999 -9999 -9999
122 127 127 127 127 127 122 100 97 -9999 -9999 -9999 -9999 -9999 -9999 -9999 -9999 -9999 -9999
-9999 -9999 127 123 105 97 97 97 97 -9999 -9999 -9999 -9999 -9999 -9999 -9999 -9999 -9999 -9999
-9999 -9999 -9999 97 97 97 97 97 103 -9999 -9999 -9999 -9999 -9999 -9999 -9999 -9999 -9999 -9999
-9999 -9999 -9999 -9999 97 97 97 97 97 -9999 -9999 -9999 -9999 -9999 -9999 -9999 -9999 -9999 -9999
-9999 -9999 -9999 -9999 -9999 97 97 97 97 97 -9999 -9999 -9999 -9999 -9999 -9999 -9999 -9999 -9999
-9999 -9999 -9999 -9999 -9999 97 97 97 101 101 101 101 -9999 -9999 -9999 -9999 -9999 -9999 -9999
-9999 -9999 -9999 -9999 -9999 97 97 97 101 101 101 101 101 -9999 -9999 -9999 -9999 -9999 -9999
-9999 -9999 -9999 -9999 -9999 97 97 97 101 101 101 101 115 116 -9999 -9999 -9999 -9999 -9999
-9999 -9999 -9999 -9999 97 97 97 97 97 108 109 110 116 139 -9999 -9999 -9999 -9999 -9999
-9999 -9999 -9999 -9999 97 97 97 97 97 103 116 116 116 142 -9999 -9999 -9999 -9999 -9999
-9999 -9999 -9999 -9999 98 97 97 97 97 97 134 141 145 145 -9999 -9999 -9999 -9999 -9999
-9999 -9999 -9999 -9999 97 97 97 97 97 97 97 145 145 144 131 -9999 -9999 -9999 -9999
-9999 -9999 -9999 98 -9999 -9999 97 97 97 97 97 145 141 135 126 -9999 -9999 -9999 -9999
-9999 -9999 -9999 -9999 -9999 -9999 98 97 97 97 97 108 108 108 108 -9999 -9999 -9999 -9999
-9999 -9999 -9999 -9999 -9999 -9999 97 97 97 97 97 112 111 114 118 100 -9999 -9999 -9999
-9999 -9999 -9999 -9999 -9999 -9999 97 97 97 97 97 118 118 118 118 88 84 -9999 -9999
-9999 -9999 -9999 -9999 -9999 -9999 97 97 98 97 97 118 118 118 118 88 88 -9999 -9999
-9999 -9999 -9999 -9999 -9999 -9999 97 104 105 105 118 118 118 118 111 88 88 -9999 -9999
-9999 -9999 -9999 -9999 -9999 -9999 104 105 105 105 105 118 118 118 88 88 88 -9999 -9999
-9999 -9999 -9999 -9999 -9999 105 105 105 105 105 105 106 110 110 88 88 88 -9999 -9999
-9999 -9999 -9999 -9999 -9999 101 105 105 105 105 105 105 105 90 88 88 88 -9999 -9999
-9999 -9999 -9999 -9999 -9999 -9999 104 105 105 105 105 105 105 91 88 88 88 -9999 -9999
-9999 -9999 -9999 -9999 -9999 -9999 -9999 100 105 105 105 105 105 88 88 88 88 -9999 -9999
-9999 -9999 -9999 -9999 -9999 -9999 -9999 -9999 105 105 105 105 105 106 106 105 104 -9999 -9999
-9999 -9999 -9999 -9999 -9999 -9999 -9999 104 105 105 105 105 105 107 107 107 107 -9999 -9999
-9999 -9999 -9999 -9999 -9999 -9999 -9999 105 105 105 105 105 105 107 107 107 107 -9999 -9999
-9999 -9999 -9999 -9999 -9999 -9999 -9999 105 105 105 105 105 105 107 107 107 107 -9999 -9999
-9999 -9999 -9999 -9999 -9999 -9999 -9999 105 113 121 121 107 107 107 107 107 107 -9999 -9999
-9999 -9999 -9999 -9999 -9999 -9999 -9999 121 121 121 122 123 107 107 107 107 107 -9999 -9999
-9999 -9999 -9999 -9999 -9999 -9999 -9999 121 121 121 123 123 120 107 107 107 107 -9999 -9999
-9999 -9999 -9999 -9999 -9999 -9999 -9999 121 121 121 123 123 120 107 107 107 107 -9999 -9999
-9999 -9999 -9999 -9999 -9999 -9999 121 121 121 121 121 123 108 107 107 107 107 -9999 -9999
-9999 -9999 -9999 -9999 -9999 -9999 121 121 121 123 123 123 114 107 107 107 107 -9999 -9999
-9999 -9999 -9999 -9999 -9999 -9999 -9999 128 126 123 123 123 107 107 107 107 107 -9999 -9999
-9999 -9999 -9999 -9999 -9999 -9999 -9999 130 128 128 128 107 107 107 111 113 113 -9999 -9999
-9999 -9999 -9999 -9999 -9999 -9999 -9999 128 128 128 128 107 113 113 113 113 113 -9999 -9999
-9999 -9999 -9999 -9999 -9999 -9999 -9999 128 128 128 125 113 113 113 113 113 113 -9999 -9999
-9999 -9999 -9999 -9999 -9999 -9999 128 128 128 128 113 113 113 113 113 113 -9999 -9999 -9999
-9999 -9999 -9999 -9999 -9999 -9999 128 128 128 128 113 113 113 113 113 117 136 -9999 -9999
-9999 -9999 -9999 -9999 -9999 -9999 -9999 127 128 128 129 129 129 135 136 136 136 -9999 -9999
-9999 -9999 -9999 -9999 -9999 -9999 -9999 127 128 128 129 129 129 129 136 136 136 -9999 -9999
-9999 -9999 -9999 -9999 -9999 -9999 -9999 -9999 128 129 129 129 129 129 136 136 149 152 -9999
-9999 -9999 -9999 -9999 -9999 -9999 -9999 -9999 129 129 129 129 129 129 134 159 159 157 -9999
-9999 -9999 -9999 -9999 -9999 -9999 -9999 -9999 -9999 -9999 129 129 129 129 129 159 159 157 155
-9999 -9999 -9999 -9999 -9999 -9999 -9999 -9999 -9999 -9999 -9999 140 223 131 147 158 158 -9999 -9999
-9999 -9999 -9999 -9999 -9999 -9999 -9999 -9999 -9999 -9999 -9999 -9999 -9999 223 -9999 -9999 -9999 -9999 -9999
